icons/folder_type_json_official.svg

<svg xmlns="http://www.w3.org/2000/svg" xmlns:xlink="http://www.w3.org/1999/xlink" viewBox="0 0 32 32"><defs><linearGradient id="a" x1="-675.043" x2="-660.949" y1="-738.863" y2="-752.96" gradientTransform="matrix(1 0 0 -1 688.886 -724.637)" gradientUnits="userSpaceOnUse"><stop offset="0"/><stop offset="1" stop-color="#fff"/></linearGradient><linearGradient xlink:href="#a" id="b" x1="-660.289" x2="-674.388" y1="-752.301" y2="-738.199"/></defs><path d="M27.5 5.5h-9.3l-2.1 4.2H4.4v16.8h25.2v-21Zm0 4.2h-8.2l1.1-2.1h7.1Z" style="fill:#686868"/><path d="M20.983 25.887c4.418 6.032 8.742-1.683 8.735-6.323-.007-5.485-5.559-8.552-8.739-8.552a9.994 9.994 0 0 0 0 19.988c-.993-.143-4.307-.857-4.35-8.5-.03-5.168 1.683-7.232 4.344-6.325a5.079 5.079 0 0 1 2.935 4.869 5.094 5.094 0 0 1-2.925 4.843Z" style="fill:url(#a)"/><path d="M20.978 16.175c-2.92-1.008-6.5 1.4-6.5 6.229 0 7.882 5.832 8.6 6.539 8.6a9.994 9.994 0 0 0 0-19.988c1.216-.168 6.558 1.319 6.558 8.63C27.579 24.409 23.59 27 21 25.9a5.078 5.078 0 0 1-2.936-4.869 5.124 5.124 0 0 1 2.914-4.856Z" style="fill:url(#b)"/></svg>

<svg xmlns="http://www.w3.org/2000/svg" xmlns:xlink="http://www.w3.org/1999/xlink" viewBox="0 0 32 32"><defs><linearGradient id="a" x1="-675.043" y1="-738.863" x2="-660.949" y2="-752.96" gradientTransform="matrix(1, 0, 0, -1, 688.886, -724.637)" gradientUnits="userSpaceOnUse"><stop offset="0"/><stop offset="1" stop-color="#fff"/></linearGradient><linearGradient id="b" x1="-660.289" y1="-752.301" x2="-674.388" y2="-738.199" xlink:href="#a"/></defs><title>folder_type_json_official</title><path d="M27.5,5.5H18.2L16.1,9.7H4.4V26.5H29.6V5.5Zm0,4.2H19.3l1.1-2.1h7.1Z" style="fill:#686868"/><path d="M20.983,25.887c4.418,6.032,8.742-1.683,8.735-6.323-.007-5.485-5.559-8.552-8.739-8.552a9.994,9.994,0,0,0,0,19.988c-.993-.143-4.307-.857-4.35-8.5-.03-5.168,1.683-7.232,4.344-6.325a5.079,5.079,0,0,1,2.935,4.869A5.094,5.094,0,0,1,20.983,25.887Z" style="fill:url(#a)"/><path d="M20.978,16.175c-2.92-1.008-6.5,1.4-6.5,6.229,0,7.882,5.832,8.6,6.539,8.6a9.994,9.994,0,0,0,0-19.988c1.216-.168,6.558,1.319,6.558,8.63C27.579,24.409,23.59,27,21,25.9a5.078,5.078,0,0,1-2.936-4.869A5.124,5.124,0,0,1,20.978,16.175Z" style="fill:url(#b)"/></svg>
